frontend/src/assets/icons/arrow-down.svg

<svg  viewBox="0 0 24 24" fill="currentColor" xmlns="http://www.w3.org/2000/svg">
<path d="M17.8352 9.16475C17.6355 8.96505 17.323 8.9469 17.1028 9.11029L17.0398 9.16475L12.1875 14.0168L7.33525 9.16475C7.13555 8.96505 6.82305 8.9469 6.60284 9.11029L6.53975 9.16475C6.34005 9.36445 6.3219 9.67695 6.48529 9.89716L6.53975 9.96025L11.7898 15.2102C11.9895 15.4099 12.302 15.4281 12.5222 15.2647L12.5852 15.2102L17.8352 9.96025C18.0549 9.74058 18.0549 9.38442 17.8352 9.16475Z" fill="inherit"/>
</svg>

<svg xmlns="http://www.w3.org/2000/svg" fill="currentColor" viewBox="0 0 24 24"><path fill="inherit" d="M17.835 9.165a.563.563 0 0 0-.732-.055l-.063.055-4.852 4.852-4.853-4.852a.563.563 0 0 0-.732-.055l-.063.055c-.2.2-.218.512-.055.732l.055.063 5.25 5.25c.2.2.512.218.732.055l.063-.055 5.25-5.25a.562.562 0 0 0 0-.795Z"/></svg>
